icon-themes/sifr_svg/cmd/sc_pagesetup.svg

<svg viewBox="0 0 16 16" xmlns="http://www.w3.org/2000/svg"><path d="m0 2v12h8v-2h-6v-8h12v5h2v-7zm3 3v2h10v-2zm0 4v2h4v-2zm6 0v2h1.427734.572266v-.597656-1.402344zm3 0v1c1.560655 1.623957-.566483 3.497742-2 2h-1v1c.8.77108 1.635355 1 2.400391 1h1.599609l2 2h1v-1l-2-2v-.332031-1.267578c0-.88237-.214695-1.600391-1-2.400391z" fill="#555753"/></svg>

<svg xmlns="http://www.w3.org/2000/svg" viewBox="0 0 16 16">
  <path
     style="fill:#555753"
     d="M 0 2 L 0 14 L 8 14 L 8 12 L 2 12 L 2 4 L 14 4 L 14 9 L 16 9 L 16 2 L 0 2 z M 3 5 L 3 7 L 13 7 L 13 5 L 3 5 z M 3 9 L 3 11 L 7 11 L 7 9 L 3 9 z M 9 9 L 9 11 L 10.427734 11 L 11 11 L 11 10.402344 L 11 9 L 9 9 z M 12 9 L 12 10 C 13.560655 11.623957 11.433517 13.497742 10 12 L 9 12 L 9 13 C 9.8 13.77108 10.635355 14 11.400391 14 L 13 14 L 15 16 L 16 16 L 16 15 L 14 13 L 14 12.667969 L 14 11.400391 C 14 10.518021 13.785305 9.8 13 9 L 12 9 z "
     />
</svg>
